X:121
T: WOHL AUF ZUM TANZ
N: B0611
O: Europa, Mitteleuropa, Deutschland
R: Staende -, Bauern - Lied, Tanz
M: 2/4
L: 1/16
K: Bb
fd | B2B2B2cA | F2F2F2
D2 | E2D2E2=E2 | F4z2
f2 | e2c2c2e2 | d2B2B2
d2 | c2ceA2Ac | B4z2
d2 | c2ceA2Ac | B4z2

